X:1
T: Tom Steele
C:Muriel A Johnstone
R:Strathspey
%Q: 128
K:F
M:4/4
L:1/16
|:C2|FF3 A3F B3G EC3|FF3 A3F c3F f3c|d3B c3A B3G EC3|F3G AF3 G4c4|
FF3 A3F B3G EC3|FF3 A3F c3F f3c|((3dbd) ((3cac) B3G EC3|F3G A3G F4f4|
a4 a3g fd3 d4|((3G=Bd) g3f ec3 c3_e|dB3 B3d cA3 A3c|dD3 D3F E3C B3G|
AF3 A3c dB3 B4|((3DG=B) d3g ec3 c3e|((3fed) ((3cd_e) ((3dcB) ((3ABc)|B3G EC3 F6:|
